X:1
T:The Well-Tempered Clavier Book II - XII
T:BWV 881    (A = 415 Hz)
T:J. S. Bach
%%score { ( 1 2 ) | ( 3 4 ) }
L:1/8
M:2/4
K:Ab
V:1 treble 
V:2 treble 
V:3 bass 
V:4 bass 
V:1
"^Praeludium" z A | B/4A/4B/4A/4G z B | c/4B/4c/4B/4A z a | ag z f | f=e z/ G/C/G/ | %5
 z/ A/C/A/ z/ F/C/F/ | z/ G/C/G/ z/ B/C/B/ | z/ A/C/A/ z/ F/C/F/ | z/ G/C/G/ z A | AG z B | %10
 BA z c | cd z B | Bc z e | f/4e/4f/4e/4d z d | e/4d/4e/4d/4c z _g | _gf z a | ag z/ B/E/B/ | %17
 z/ c/E/c/ z/ A/E/A/ | z/ B/E/B/ z/ d/E/d/ | z/ c/E/c/ z/ =d/E/d/ | z/ e/E/e/ _G/A/c/e/ | %21
 e/c/A/F/ F/G/B/d/ | d/B/G/E/ E/F/A/c/ | c/A/F/D/ D/E/G/B/ | B/G/E/C/ z/ A/C/A/ | %25
 z/ A/D/A/ z/ A/C/A/ | z/ A/B,/A/ z/ A/A,/A/ | B,/A/_F/A/ E/G/D/G/ | GA z A | B/4A/4B/4A/4G z B | %30
 c/4B/4c/4B/4A z a | ag z f | f=e z/ G/C/G/ | z/ A/C/A/ z/ F/C/F/ | z/ G/C/G/ z/ B/C/B/ | %35
 z/ A/C/A/ z/ F/C/F/ | z/ G/C/G/ z A | AG z B | BA z c | cd z B | Bc z e | f/4e/4f/4e/4d z d | %42
 e/4d/4e/4d/4c z _g | _gf z a | ag z/ B/E/B/ | z/ c/E/c/ z/ A/E/A/ | z/ B/E/B/ z/ d/E/d/ | %47
 z/ c/E/c/ z/ =d/E/d/ | z/ e/E/e/ _G/A/c/e/ | e/c/A/F/ F/G/B/d/ | d/B/G/E/ E/F/A/c/ | %51
 c/A/F/D/ D/E/G/B/ | B/G/E/C/ z/ A/C/A/ | z/ A/D/A/ z/ A/C/A/ | z/ A/B,/A/ z/ A/A,/A/ | %55
 B,/A/_F/A/ E/G/D/G/ | GA z c | cB z d | dc z e | e=d z f | fe _g2 | f2 e2 | d2 =d2 | e2 f2- | %64
 fe z/ _g/f/g/ | B=A- A/e/d/e/ | _GF- F/d/c/d/ | E/c/B/c/- c/B=A/ | =AB ff/4e/4f/4e/4 | df Bd/f/ | %70
 ag ee/4d/4e/4d/4 | ce Ac/e/ | _gf Af | B/4A/4B/4A/4G Bg | c/4B/4c/4B/4A c/=e/f/a/ | %75
 d/a/c/a/ B/a/g/f/ | f/=e/=d/c/ a/f/_d/c/ | B/A/B/d/ _g/e/c/B/ | =A/G/A/c/ f/d/B/_A/ | %79
 _G/F/G/B/ e/c/=A/G/ | F/=E/F/e/ d z | G z B z | =E z z/ G/B,/G/ | A,/G/A,/F/ A,/F/A,/F/ | %84
 A,/F/=E z A | AG z G/A/ | B/d/c z c | B/A/G/F/ A/G/F/=E/ | =E/F/G/F/ E/F/B/F/ | %89
 =E/F/A/F/ E/F/d/F/ | =E/F/c/F/ _E/F/=A/c/ | c/=A/F/D/ D/E/G/B/ | B/G/E/C/ C/D/F/A/ | %93
 A/F/D/B,/ B,/C/=E/G/ | G/=E/C/A,/ z/ F/=A,/F/ | z/ G/B,/G/ z/ =A/_G/A/ | z/ B/F/B/ z/ A/F/A/ | %97
 z [FA] z/ G/4F/4G/4F/4=E/ | =EF z c | cB z d | dc z e | e=d z f | fe _g2 | f2 e2 | d2 =d2 | %105
 e2 f2- | fe z/ _g/f/g/ | B=A- A/e/d/e/ | _GF- F/d/c/d/ | E/c/B/c/- c/B=A/ | =AB ff/4e/4f/4e/4 | %111
 df Bd/f/ | ag ee/4d/4e/4d/4 | ce Ac/e/ | _gf Af | B/4A/4B/4A/4G Bg | c/4B/4c/4B/4A c/=e/f/a/ | %117
 d/a/c/a/ B/a/g/f/ | f/=e/=d/c/ a/f/_d/c/ | B/A/B/d/ _g/e/c/B/ | =A/G/A/c/ f/d/B/_A/ | %121
 _G/F/G/B/ e/c/=A/G/ | F/=E/F/e/ d z | G z B z | =E z z/ G/B,/G/ | A,/G/A,/F/ A,/F/A,/F/ | %126
 A,/F/=E z A | AG z G/A/ | B/d/c z c | B/A/G/F/ A/G/F/=E/ | =E/F/G/F/ E/F/B/F/ | %131
 =E/F/A/F/ E/F/d/F/ | =E/F/c/F/ _E/F/=A/c/ | c/=A/F/D/ D/E/G/B/ | B/G/E/C/ C/D/F/A/ | %135
 A/F/D/B,/ B,/C/=E/G/ | G/=E/C/A,/ z/ F/=A,/F/ | z/ G/B,/G/ z/ =A/_G/A/ | z/ B/F/B/ z/ A/F/A/ | %139
 z [FA] z/ G/4F/4G/4F/4=E/ | =E!fermata!F z2 |[M:2/4]"^Fuga" z2 z c | F/4E/4F/F Fd/B/ | %143
 =EE E/F/G/A/ | B/A/G/A/ B/d/c/B/ | A/G/F/G/ A/B/c/=d/ | e/=d/c/d/ e/g/f/e/ | %147
 =d/c/=B/=A/ G/A/B/c/ | =df ^g=B | ce gc' | dc' bd | ce ac | Ba gB | A/c/f/e/ d2- | d/c/B/A/ G2- | %155
 Gd c2- | cd c2- | cd c2- | cc ca | B/c/d/c/ B/c/d/c/ | BB Bg | A/B/c/B/ A/B/c/^A/ | AA Ad- | %163
 d/F/G/A/ B/c/d/B/ | c/d/B/c/ d/c/B/A/ | G/A/B/G/ Ee | A/4G/4A/A Af/d/ | GG G/A/B/c/ | %168
 d/c/B/c/ d/f/e/d/ | c/B/A/G/ A/B/c/=d/ | e3 e | a/g/a/b/ a/g/f/e/ | =d4- | d/c/=B/c/ =d/f/e/d/ | %174
 ee e2- | e4 | =dd d2- | d4 | cc cf | =B/c/ =d2- d | z/ G/c- c/c=B/ | c2 z c/^A/ | A2 z/ ^G/B/d/- | %183
 d/d/c/B/ g2- | g2- g=e | f z z2 | z2 z =a | be db- | bc'/b/ a/g/f/=e/ | f4- | fb/a/ g/f/=e/=d/ | %191
 =e/f/e/=d/ c/B/A/G/ | A/F/A/c/ f/c/B/A/ | B/G/B/=e/ g/f/e/=d/ | c/=d/=e/g/ c'/b/a/g/ | %195
 f/_g/f/e/ d/c/B/=A/ | BF d2- | d<d- d<d- | d<c- c<c- | c/B/=A/G/ A/B/c- | cB/=A/ Bd | Gc/=d/ =ef | %202
 gf =ef | g2- g/f/=e/f/ | g2- g/f/=e/f/ | b/f/=e/=d/ e/f/g- | gf/=e/ fg | aa a2- | a4 | gg g2- | %210
 g4 | f2 z f | e2 z f | BB B_g/e/ | =AA A/B/c/d/ | e/d/c/d/ e/_g/f/e/ | dd d z | dd d z | %218
 =E z z =e | fc ca | B/c/d/c/ B/c/d/c/ | BB Bg | A/B/c/B/ A/B/c/B/ | AA Af | G/A/B/A/ G/d/c/B/ | %225
 A>G A/4G/4A/4G/4A/4G/4F/ | !fermata!F3 z |] %227
V:2
 z F | F=E z G | GF z c | cB z A | AG =E z | F z =D z | =E z G z | F z =D z | =E z z F | F=E z G | %10
 GF z A | AB z G | GA z c | cB z B | BA z e | ed z c | cB G z | A z F z | G z B z | A z F z | %20
 G z z[I:staff +1] A,- | A,F,[I:staff -1] z[I:staff +1] G,- | G,E,[I:staff -1] z[I:staff +1] F,- | %23
 F,D,[I:staff -1] z[I:staff +1] E,- | E,C, E,_G, | F,[I:staff -1] z z[I:staff +1] E, | %26
 D,[I:staff -1] z z[I:staff +1] _C, |[I:staff -1] z2 ED | DC z F | F=E z G | GF z c | cB z A | %32
 AG =E z | F z =D z | =E z G z | F z =D z | =E z z F | F=E z G | GF z A | AB z G | GA z c | %41
 cB z B | BA z e | ed z c | cB G z | A z F z | G z B z | A z F z | G z z[I:staff +1] A,- | %49
 A,F,[I:staff -1] z[I:staff +1] G,- | G,E,[I:staff -1] z[I:staff +1] F,- | %51
 F,D,[I:staff -1] z[I:staff +1] E,- | E,C, E,_G, | F,[I:staff -1] z z[I:staff +1] E, | %54
 D,[I:staff -1] z z[I:staff +1] _C, |[I:staff -1] z2 ED | DC z A | AG z B | BA z _G | _GF z A | %60
 A_G z2 | z2 c2- | cB _c2 | B2 A2 | _G2 z2 | x4 | z2 F2 | E2 DC | CD z2 | x4 | x4 | x4 | x4 | x4 | %74
 x4 | x4 | z2 z[I:staff +1] A, | G,2[I:staff -1] z[I:staff +1] _G, | %78
 F,C[I:staff -1] z[I:staff +1] F, | E,2[I:staff -1] z[I:staff +1] D, | C,2[I:staff -1] B z | %81
 E z D z | D z z B, | A,A, A,A, | A,G, z F | F=E z E- | E2 z F- | F z z[I:staff +1] B, | %88
 A,[I:staff -1] z z2 | x4 | x4 | z[I:staff +1] A, G,2- | G,G, F,2- | F,F, =E,2 | %94
[I:staff -1] z2 z C | z D z E | z B, z C | z D[I:staff +1] C,B, | B,A,[I:staff -1] z A | AG z B | %100
 BA z _G | _GF z A | A_G z2 | z2 c2- | cB _c2 | B2 A2 | _G2 z2 | x4 | z2 F2 | E2 DC | CD z2 | x4 | %112
 x4 | x4 | x4 | x4 | x4 | x4 | z2 z[I:staff +1] A, | G,2[I:staff -1] z[I:staff +1] _G, | %120
 F,C[I:staff -1] z[I:staff +1] F, | E,2[I:staff -1] z[I:staff +1] D, | C,2[I:staff -1] B z | %123
 E z D z | D z z B, | A,A, A,A, | A,G, z F | F=E z E- | E2 z F- | F z z[I:staff +1] B, | %130
 A,[I:staff -1] z z2 | x4 | x4 | z[I:staff +1] A, G,2- | G,G, F,2- | F,F, =E,2 | %136
[I:staff -1] z2 z C | z D z E | z B, z C | z D[I:staff +1] C,B, | B,!fermata!A, x2 |[M:2/4] x4 | %142
 x4 | x4 | x4 |[I:staff -1] z2 z F | CC CA/F/ | =B,B, B,/C/=D/E/ | F/E/=D/E/ F/A/G/F/ | %149
 E/=D/C/D/ E/F/G/=A/ | B/A/G/F/ G/B/A/G/ | A/B/c/B/ A/G/F/E/ | =D/F/=E/D/ E/G/F/E/ | %153
 F z z/ c/B/A/ | G2 z/ F/=E/=D/ | =E3 E | F2 F/A/G/F/ | =E/G/B- B/G/F/E/ | AA A2- | A4 | GG G2- | %161
 G4 | FF F2 | E z z2 | x4 | x4 | x4 | x4 | x4 | z2 z A | EE Ec/A/ |[I:staff +1] =DD D/E/F/G/ | %172
[I:staff -1] A/G/F/G/ A/c/B/A/ | G4- | GG Ge | F/G/A/G/ F/G/A/G/ | FF F=d | E/F/G/F/ E/F/G/F/ | %178
 EE EA- | A>A G/F/E/=D/ | E>E =DF- | F/F/=E/=D/ E<G- | G/G/F/=E/ F2 | G2 z =e | dB G2 | %185
 z/ B/A/G/ F/G/A/B/ | ce _g2- | g=A Bd | c z z2 | z A dc | B z z2 | z[I:staff +1] G,/A,/ B,/G,/C | %192
 F,F, F,D/B,/ | =E,E, E,/F,/G,/A,/ | B,/A,/G,/A,/ B,/D/C/B,/ | A,=A, B,C |[I:staff -1] D z z B/A/ | %197
 _GG/F/ GG/F/ | _GE/D/ EE/D/ | E4- | E/[I:staff +1]C/D/F/ E/D/C/B,/ |[I:staff -1] =EF GA | %202
 BB/A/ B2- | B/=e/d/c/ B2- | B/=e/d/c/ B2 | z2 B2- | B/[I:staff +1]G/A/d/ c/B/A/G/ | %207
 F[I:staff -1]c ca | B/c/d/c/ B/c/d/c/ | BB Bg | A/B/c/B/ A/B/c/B/ | AA d2- | dc/B/ =A z | %213
 z/[I:staff +1] F,/G,/=A,/ B,[I:staff -1] z | z/ C/E/D/ C/B,/=A,/G,/ | %215
[I:staff +1] F,/[I:staff -1] z/ z z c | FF Fd/B/ | =EE E/F/G/A/ | B/A/G/A/ B/d/c/B/ | AA A2- | A4 | %221
 GG G2- | G4 | FF F2- | F=E z E | F2 =E2 | F3 z |] %227
V:3
 F, z | C2 C,2 | F,2 F,,2 | B,,2 =B,,2 | C,2 z2 | z4 | z4 | z4 | z2 F,2 | C2 C,2 | F,2 F,,2 | %11
 B,,2 E,,2 | A,,2 A,2 | B,2 B,,2 | C,2 C2 | D2 =D2 | E2 z2 | z4 | z4 | z4 | z2 C,2 | D,2 B,,2 | %22
 C,2 A,,2 | B,,2 G,,2 | A,,2 z2 | z A,, _G,, z | z _F,, E,, z | =D,,2 z E,, | A,,2 F, z | C2 C,2 | %30
 F,2 F,,2 | B,,2 =B,,2 | C,2 z2 | z4 | z4 | z4 | z2 F,2 | C2 C,2 | F,2 F,,2 | B,,2 E,,2 | %40
 A,,2 A,2 | B,2 B,,2 | C,2 C2 | D2 =D2 | E2 z2 | z4 | z4 | z4 | z2 C,2 | D,2 B,,2 | C,2 A,,2 | %51
 B,,2 G,,2 | A,,2 z2 | z A,, _G,, z | z _F,, E,, z | =D,,2 z E,, | A,,2 A,2 | E2 E,2 | A,2 =A,2 | %59
 B,2 =D,2 | E,2[K:treble] z/ =A/E/A/ | z/ B/D/B/ z/ _G/=A,/G/ | z/ F/B,/F/ z/ A/B,/A/ | %63
 z/ _G/C/G/ z/ F/=D/F/ | z/ E/=D/E/ C/E/_D/E/ |[K:bass] F,/D/C/D/ G,/C/B,/C/ | %66
 =A,/B,/A,/B,/ D,/B,/A,/B,/ | _G,/F,/G,/E,/ F,F,, | B,,2 z/ D/C/D/ | B,/D/A,/D/ G,/D/F,/D/ | %70
 E,/G,/B,/D/ z/ C/B,/C/ | A,/C/_G,/C/ F,/C/E,/C/ | D,/F,/A,/C/ =D,/F,/A,/B,/ | %73
 E,/G,/B,/D/ =E,/G,/B,/C/ | F,/A,/C/=E/ FA | B,C DB, | CC, z F, | F,=E, z _E, | E,2 z D, | %79
 D,C, z B,, | B,,=A,, z/ B,/C/D/ | z/ C/B,/A,/ z/ G,/A,/B,/ | z/ A,/G,/F,/ =E,C | F,C D,=B, | %84
 C,C F,2 | B,2 D2 | G,2 A,2 | DB, CC, | D, z DD, | C,C B,B,, | A,,/C,/F,/G,/ =A,F, | B,,2 z E, | %92
 A,,2 z D, | G,,2 z C, | F,,A,, C,E, | D,F,, E,,C, | B,,D,, C,,C, | [=B,,=D,F,] z C,2 | F,2 A,2 | %99
 E2 E,2 | A,2 =A,2 | B,2 =D,2 | E,2 z/ =A/E/A/ | z/ B/D/B/ z/ _G/=A,/G/ | z/ F/B,/F/ z/ A/B,/A/ | %105
 z/ _G/C/G/ z/ F/=D/F/ | z/ E/=D/E/ C/E/_D/E/ | F,/D/C/D/ G,/C/B,/C/ | =A,/B,/A,/B,/ D,/B,/A,/B,/ | %109
 _G,/F,/G,/E,/ F,F,, | B,,2 z/ D/C/D/ | B,/D/A,/D/ G,/D/F,/D/ | E,/G,/B,/D/ z/ C/B,/C/ | %113
 A,/C/_G,/C/ F,/C/E,/C/ | D,/F,/A,/C/ =D,/F,/A,/B,/ | E,/G,/B,/D/ =E,/G,/B,/C/ | F,/A,/C/=E/ FA | %117
 B,C DB, | CC, z F, | F,=E, z _E, | E,2 z D, | D,C, z B,, | B,,=A,, z/ B,/C/D/ | %123
 z/ C/B,/A,/ z/ G,/A,/B,/ | z/ A,/G,/F,/ =E,C | F,C D,=B, | C,C F,2 | B,2 D2 | G,2 A,2 | DB, CC, | %130
 D, z DD, | C,C B,B,, | A,,/C,/F,/G,/ =A,F, | B,,2 z E, | A,,2 z D, | G,,2 z C, | F,,A,, C,E, | %137
 D,F,, E,,C, | B,,D,, C,,C, | [=B,,=D,F,] z C,2 | !fermata!F,2 z2 |[M:2/4] z2 z z | z4 | z4 | z4 | %145
 z4 | z4 | z4 | z4 | z4 | z4 | z4 | z z2 C | F,F, F,D/B,/ | =E,E, E,/F,/G,/A,/ | %155
 B,/A,/G,/A,/ B,/D/C/B,/ | A,/G,/F,/G,/ A,/C/B,/A,/ | G,/F,/=E,/F,/ G,/B,/A,/G,/ | %158
 F,/A,/C/F/ C/A,/F,/A,/ | D,F, D,B,, | E,/G,/B,/E/ B,/G,/E,/G,/ | C,E, C,A,, | %162
 D,/E,/F,/E,/ D,/C,/B,,/A,,/ | G,,B,, G,,E,, | A,,G,, F,,=D, | E,E,, z/ D/C/B,/ | %166
 C/E/C/A,/ F,/E/D/C/ | B,/D/B,/G,/ E,/C/B,/A,/ | G,/A,/G,/F,/ E,/D,/C,/B,,/ | A,,A, G,F, | %170
 C/B,/C/D/ C/B,/A,/G,/ | F,2 B,2- | B,A,/G,/ F,/E,/=D,/C,/ | =B,,=D, B,,G,, | %174
 C,/E,/G,/C/ G,/E,/C,/E,/ | A,,C, A,,F,, | B,,/=D,/F,/B,/ F,/D,/B,,/D,/ | G,,B,, G,,E,, | %178
 A,,/B,,/C,/B,,/ A,,/G,,/F,,/E,,/ | =D,,C, =B,,G,, | C,A,, F,,G,, | C,,2 z C | F,F, F,D/B,/ | %183
 =E,E, E,/F,/G,/A,/ | B,/A,/G,/A,/ B,/D/C/B,/ | A,/G,/F,/G,/ A,/B,/C/D/ | %186
[K:treble] E/D/C/D/ E/_G/F/E/ | D/C/B,/C/ D/E/F/G/ | A/B/A/G/ F/E/D/C/ | %189
 D/E/D/C/[K:bass] B,/A,/G,/F,/ | G,/A,/G,/F,/ =E,/=D,/C,/=B,,/ | C,C, C, z | C,C, C, z | %193
 C,C, C, z | z4 | D,4- | D,/E,/D,/C,/ B,,/A,,/_G,,/F,,/ | E,,E,, E,,E,/C,/ | =A,,A,, A,,^F,/E,/ | %199
 C,C, C,B,/=A,/ | B,4- | B,/G,/A,/C/ B,/A,/G,/F,/ | =E,/F,/G,/A,/ G,/F,/E,/=D,/ | C,C, C,B,/G,/ | %204
 =E,E, E,D/B,/ | G,G, G,[K:treble]F/=E/ | F4- | F/=E/F/G/ F/_E/D/C/ | DF DB, | E/D/E/F/ E/D/C/B,/ | %210
[K:bass] CE CA, | D/E/D/C/ B,/A,/G,/F,/ | G,/B,/=A,/G,/ F,/E,/D,/C,/ | D,2 z/ D,/E,/F,/ | %214
 _G, z z2 | z/ B,/=A,/G,/ F,/E,/D,/C,/ | B,,/C,/D,/C,/ B,,/A,,/G,,/F,,/ | %217
 G,,/A,,/B,,/A,,/ G,,/F,,/=E,,/=D,,/ | C,,=E,, G,,C,- | C,/F,,/A,,/C,/ F,/A,/G,/F,/ | DB, G,F, | %221
 C,,/=E,,/G,,/C,/ =E,/G,/F,/E,/ | CA, F,=E, | C,,/F,,/A,,/C,/ F,/A,/G,/F,/ | B,G, =E,C, | %225
 D,B,, C,C,, | !fermata!F,,3 z |] %227
V:4
 x2 | x4 | x4 | x4 | x4 | x4 | x4 | x4 | x4 | x4 | x4 | x4 | x4 | x4 | x4 | x4 | x4 | x4 | x4 | %19
 x4 | x4 | x4 | x4 | x4 | x4 | x4 | x4 | z B,, E,2- | E,2 z2 | x4 | x4 | x4 | x4 | x4 | x4 | x4 | %36
 x4 | x4 | x4 | x4 | x4 | x4 | x4 | x4 | x4 | x4 | x4 | x4 | x4 | x4 | x4 | x4 | x4 | x4 | x4 | %55
 z B,, E,2- | E,2 x2 | x4 | x4 | x4 | x2[K:treble] x2 | x4 | x4 | x4 | x4 |[K:bass] x4 | x4 | x4 | %68
 x4 | x4 | x4 | x4 | x4 | x4 | x4 | x4 | x4 | x4 | x4 | x4 | x4 | x4 | x4 | x4 | x4 | x4 | x4 | %87
 x4 | x4 | x4 | x4 | x4 | x4 | x4 | x4 | x4 | x4 | x4 | x4 | x4 | x4 | x4 | x4 | x4 | x4 | x4 | %106
 x4 | x4 | x4 | x4 | x4 | x4 | x4 | x4 | x4 | x4 | x4 | x4 | x4 | x4 | x4 | x4 | x4 | x4 | x4 | %125
 x4 | x4 | x4 | x4 | x4 | x4 | x4 | x4 | x4 | x4 | x4 | x4 | x4 | x4 | x4 | x4 |[M:2/4] x4 | x4 | %143
 x4 | x4 | x4 | x4 | x4 | x4 | x4 | x4 | x4 | x4 | x4 | x4 | x4 | x4 | x4 | x4 | x4 | x4 | x4 | %162
 x4 | x4 | x4 | x4 | x4 | x4 | x4 | x4 | x4 | x4 | x4 | x4 | x4 | x4 | x4 | x4 | x4 | x4 | x4 | %181
 x4 | x4 | x4 | x4 | x4 |[K:treble] x4 | x4 | x4 | x2[K:bass] x2 | x4 | x4 | x4 | x4 | x4 | x4 | %196
 x4 | x4 | x4 | x4 | x4 | x4 | x4 | x4 | x4 | x3[K:treble] x | x4 | x4 | x4 | x4 |[K:bass] x4 | %211
 x4 | x4 | x4 | x4 | x4 | x4 | x4 | x4 | x4 | x4 | x4 | x4 | x4 | x4 | x4 | x4 |] %227

